X:1
T:Title
%%score 1 { 2 | 3 }
L:1/8
Q:1/4=90
M:4/4
K:Eb
V:1 treble nm="Grand Piano, Treble"
V:2 bass nm="Grand Piano, Bass"
V:3 bass 
V:1
 [EG][EG][EG][EG] [EG][EG][EG][EG] | [GB][FA][EG][B,F] [B,E]4 | [Ac][Ac][Ac][Ac] [Ac][Ac][Ac][Ac] | %3
w: 1.~Prince~ of~ glo ry~ con de scend ed,~|He~ has~ fa vored~ me;~|On~ the~ cross~ He~ meek ly~ suf fered~|
 [=Ae][Ae][Ad][Ac] B4 | [EG][EG][EG][EG] [EG][EG][EG][EG] | [GB][FA][EG][B,F] [B,E]4 | %6
w: my~ poor~ soul~ to~ free;~|He~ has~ cleansed~ my~ in ner~ be ing,~|changed~ my~ life~ of~ wrong;~|
 [Ac][Ac][Ac][Ac] [=Ae][Ae][Ad][Ac] | BB[=Ac][_Ad] [Ge]4 | [EG][EG][EG][EG] [Ec]2 [EB]2 | [DA]8 | %10
w: How~ His~ touch~ of~ heal ing~ vi tue~|fills~ my~ heart~ with~ song!~|||
 [DF][DF][DF][DF] [EB]2 [DA]2 | [EG]8 | [EG][EG][EG][EG] [Ec]2 [EB]2 | [DA]8 | %14
w: ||||
 [DF][DF][DF][DF] [EG]2 [DF]2 | [B,E]8 |] %16
w: ||
V:2
 B,B,B,B, B,B,B,B, | B,B,B,A, G,4 | EEEE EEEE | FFFE D4 | E[K:bass]B,B,B, B,B,B,B, | B,B,B,A, G,4 | %6
 EEEE FFFE | DD[K:bass]B,B, B,4 | B,B,B,B, A,2 G,2 | B,B,B,B, B,4 | A,A,A,A, G,2 B,2 | %11
 B,B,B,B, B,4 | B,B,B,B, A,2 G,2 | B,B,B,B, B,4 | B,B,B,B, B,2 A,2 | G,8 |] %16
V:3
 E,E,E,E, E,E,E,E, | B,,B,,B,,B,, E,4 | A,,A,,A,,A,, A,A,A,A, | F,F,F,F, B,4 | E,E,E,E, E,E,E,E, | %5
 B,,B,,B,,B,, E,4 | A,A,A,A, F,F,F,F, | B,B,B,,B,, E,4 | E,E,E,E, E,2 E,2 | B,,B,,D,F, B,,4 | %10
 B,,B,,B,,B,, B,,2 B,,2 | E,E, .G,2 E,4 | E,E,E,E, E,2 E,2 | B,,B,,D,F, B,,4 | %14
 B,,B,,B,,B,, B,,2 B,,2 | E,8 |] %16

